templates/main/source/images/footer__call.svg

<?xml version="1.0" encoding="utf-8"?>
<svg width="18px" height="18px" viewBox="0 0 18 18" version="1.1" xmlns:xlink="http://www.w3.org/1999/xlink" xmlns="http://www.w3.org/2000/svg">
  <desc>Created with Lunacy</desc>
  <path d="M17.9193 14.351L17.8283 14.078C17.6174 13.4489 16.9234 12.7919 16.2815 12.6168L13.9177 11.9698C13.2757 11.7958 12.3618 12.0308 11.8928 12.5008L11.0359 13.3559C7.92818 12.5148 5.48838 10.0756 4.64945 6.96525L5.50338 6.10916C5.97334 5.64111 6.20732 4.72701 6.03334 4.08394L5.38939 1.7187C5.21441 1.07863 4.55546 0.382556 3.92652 0.171534L3.65654 0.0815249C3.02459 -0.129497 2.12567 0.0835251 1.65671 0.554574L0.375816 1.83571C0.146835 2.06173 0.000847865 2.7128 0.000847865 2.7148C-0.0421485 6.78223 1.55172 10.6986 4.42647 13.5759C7.29323 16.4422 11.1939 18.0354 15.2476 17.9994C15.2696 17.9994 15.9395 17.8564 16.1675 17.6284L17.4474 16.3472C17.9173 15.8802 18.1283 14.9791 17.9193 14.351" id="Fill-1" fill="#8C0014" stroke="none" />
</svg>

<svg width="18" height="18" viewBox="0 0 18 18" xmlns:xlink="http://www.w3.org/1999/xlink" xmlns="http://www.w3.org/2000/svg"><path d="M17.92 14.351l-.092-.273c-.21-.63-.905-1.286-1.546-1.461l-2.364-.647c-.642-.174-1.556.06-2.025.53l-.857.856a9.081 9.081 0 01-6.387-6.39l.854-.857c.47-.468.704-1.382.53-2.025L5.39 1.719C5.214 1.079 4.555.383 3.927.172l-.27-.09c-.632-.211-1.531.002-2 .473L.376 1.835c-.23.227-.375.878-.375.88a15.141 15.141 0 004.425 10.86A15.116 15.116 0 0015.248 18c.022 0 .692-.143.92-.37l1.28-1.282c.47-.467.68-1.368.471-1.996" id="Fill-1" fill="#8C0014" stroke="none"/></svg>
